src/blocks/sprite-svg/svg/icon-instagram.svg

<svg width="21" height="21" viewBox="0 0 21 21" fill="none" xmlns="http://www.w3.org/2000/svg">
<path d="M14.4375 0H6.5625C2.93869 0 0 2.93869 0 6.5625V14.4375C0 18.0613 2.93869 21 6.5625 21H14.4375C18.0613 21 21 18.0613 21 14.4375V6.5625C21 2.93869 18.0613 0 14.4375 0ZM19.0312 14.4375C19.0312 16.9706 16.9706 19.0312 14.4375 19.0312H6.5625C4.02938 19.0312 1.96875 16.9706 1.96875 14.4375V6.5625C1.96875 4.02938 4.02938 1.96875 6.5625 1.96875H14.4375C16.9706 1.96875 19.0312 4.02938 19.0312 6.5625V14.4375Z"/>
<path d="M10.5 5.25C7.60069 5.25 5.25 7.60069 5.25 10.5C5.25 13.3993 7.60069 15.75 10.5 15.75C13.3993 15.75 15.75 13.3993 15.75 10.5C15.75 7.60069 13.3993 5.25 10.5 5.25ZM10.5 13.7812C8.69137 13.7812 7.21875 12.3086 7.21875 10.5C7.21875 8.69006 8.69137 7.21875 10.5 7.21875C12.3086 7.21875 13.7812 8.69006 13.7812 10.5C13.7812 12.3086 12.3086 13.7812 10.5 13.7812Z"/>
<path d="M16.1439 5.55562C16.5303 5.55562 16.8435 5.24241 16.8435 4.85605C16.8435 4.4697 16.5303 4.15649 16.1439 4.15649C15.7575 4.15649 15.4443 4.4697 15.4443 4.85605C15.4443 5.24241 15.7575 5.55562 16.1439 5.55562Z"/>
</svg>

<svg width="21" height="21" viewBox="0 0 21 21" fill="none" xmlns="http://www.w3.org/2000/svg"><path d="M14.438 0H6.561A6.563 6.563 0 000 6.563v7.875A6.563 6.563 0 006.563 21h7.875A6.563 6.563 0 0021 14.437V6.564A6.563 6.563 0 0014.437 0zm4.593 14.438a4.599 4.599 0 01-4.593 4.593H6.561a4.599 4.599 0 01-4.593-4.593V6.561A4.599 4.599 0 016.562 1.97h7.875a4.599 4.599 0 014.594 4.593v7.875z" fill="#fff"/><path d="M10.5 5.25a5.25 5.25 0 100 10.5 5.25 5.25 0 000-10.5zm0 8.531A3.286 3.286 0 017.219 10.5 3.285 3.285 0 0110.5 7.219a3.285 3.285 0 013.281 3.281 3.286 3.286 0 01-3.281 3.281zm5.644-8.225a.7.7 0 100-1.4.7.7 0 000 1.4z"/></svg>
